packages/match-logos/mono/svg/tripactions.svg

<svg fill="none" height="34" viewBox="0 0 163 34" width="163" xmlns="http://www.w3.org/2000/svg" xmlns:xlink="http://www.w3.org/1999/xlink"><clipPath id="a"><path d="m0 0h162.714v34h-162.714z"/></clipPath><g clip-path="url(#a)"><path clip-rule="evenodd" d="m18.2736 1.32455 9.2789 5.35071c1.855 1.06995 2.9981 3.0473 2.9981 5.18714v10.7005c0 2.1399-1.1431 4.1172-2.9981 5.1872l-9.2789 5.3507c-1.855 1.0699-4.1412 1.0699-5.9962 0l-9.27892-5.3507c-1.85597-1.07-2.99811379-3.0473-2.99811379-5.1872v-10.7005c0-2.13984 1.14214379-4.11719 2.99811379-5.18714l9.27892-5.35071c1.855-1.069941 4.1412-1.069941 5.9962 0zm2.861 10.92215h-14.59728c0 1.5715 1.27231 2.8463 2.84312 2.8529l.00005-.0016 3.30791.0016 1.6562.001v8.8976h3.2607v-8.8976h3.5293zm32.1239-1.7095c2.0437 0 3.4564.5345 4.354 1.4499.7837.7628 1.184 1.7929 1.184 3.1091v.0379c0 2.0412-1.0882 3.3953-2.7495 4.1013l2.7495 4.6537h-4.3499l-2.1824-3.8091h-1.6214v3.8091h-3.705v-13.3519zm11.3852-.0004v13.3519h-3.7089v-13.3519zm-19.1764.0006v3.2428h-4.0104v10.1091h-3.704v-10.1091l-4.0135-.002v-3.2408zm40.0318-.0006 5.6508 13.3519h-3.9446l-.9664-2.3673h-5.1207l-.9475 2.3673h-3.8687l5.1706-12.2171-.8177-1.1348zm11.635 0c2.6257 0 4.3149 1.1009 5.4539 2.6784l-2.6814 2.0721c-.7338-.9174-1.5794-1.5037-2.8094-1.5037-1.7991 0-3.066 1.5226-3.066 3.3923v.0369c0 1.9265 1.2669 3.4302 3.066 3.4302 1.3408 0 2.1305-.6243 2.9012-1.5596l2.6806 1.9076c-1.211 1.6692-2.8463 2.8977-5.6916 2.8977-3.6731 0-6.6293-2.806-6.6293-6.639v-.0369c0-3.7414 2.8833-6.676 6.776-6.676zm23.4769 0v13.3519h-3.709v-13.3519zm19.972.0041 5.498 7.0549v-7.0549h3.666v13.3479h-3.246l-5.707-7.3221v7.3221h-3.666v-13.3479zm-68.0719-.0042c3.3805 0 5.5579 1.7361 5.5579 4.6926v.0379c0 3.147-2.426 4.8063-5.7486 4.8063l-1.833.004v3.8111h-3.705v-13.3519zm56.5289-.0002c3.967 0 6.905 2.9536 6.905 6.6391v.0369c0 3.6864-2.975 6.6759-6.941 6.6759s-6.905-2.9526-6.905-6.639v-.0369c0-3.6865 2.975-6.676 6.941-6.676zm27.303-.0002c2.197 0 3.915.5903 5.318 1.7151l-1.791 2.5268c-1.182-.8296-2.474-1.2724-3.619-1.2724-.868 0-1.293.369-1.293.8297v.0369c0 .5903.443.8485 2.235 1.2544 2.973.6451 4.819 1.6044 4.819 4.0195v.0379c0 2.6365-2.087 4.204-5.226 4.204-2.289 0-4.468-.719-6.056-2.1389l1.994-2.3792c1.275 1.0141 2.696 1.5496 4.192 1.5496.959 0 1.477-.3321 1.477-.8855v-.0369c0-.5345-.425-.8296-2.179-1.2355-2.751-.6272-4.874-1.402-4.874-4.0574v-.0369c0-2.3971 1.901-4.1312 5.003-4.1312zm-40.959.0002v3.2418h-4.008v10.1061h-3.704v-10.1061h-4.009v-3.2418zm13.62 3.2099c-1.947 0-3.25 1.5775-3.25 3.4292v.0369c0 1.8527 1.34 3.4671 3.286 3.4671 1.965 0 3.269-1.5775 3.269-3.4302v-.0369c0-1.8527-1.341-3.4661-3.305-3.4661zm-45.307 1.146-1.4976 3.7692h2.9772zm-11.4714-1.1149h-1.7382v3.5289h1.7571c1.3179 0 2.1196-.687 2.1196-1.7361v-.0378c0-1.1448-.8017-1.755-2.1385-1.755zm-19.1577.0045h-2.4251v3.2048h2.444c1.26 0 1.9858-.6103 1.9858-1.5835v-.0379c0-1.049-.7638-1.5834-2.0047-1.5834z" fill="#1f304c" fill-rule="evenodd"/></g></svg>

<svg width="163" height="34" viewBox="0 0 163 34" fill="none" xmlns="http://www.w3.org/2000/svg">
<g clip-path="url(#clip0)">
<path fill-rule="evenodd" clip-rule="evenodd" d="M18.2736 1.32455L27.5525 6.67526C29.4075 7.74521 30.5506 9.72256 30.5506 11.8624V22.5629C30.5506 24.7028 29.4075 26.6801 27.5525 27.7501L18.2736 33.1008C16.4186 34.1707 14.1324 34.1707 12.2774 33.1008L2.99848 27.7501C1.14251 26.6801 0.000366211 24.7028 0.000366211 22.5629V11.8624C0.000366211 9.72256 1.14251 7.74521 2.99848 6.67526L12.2774 1.32455C14.1324 0.254609 16.4186 0.254609 18.2736 1.32455ZM21.1346 12.2467H6.53732C6.53732 13.8182 7.80963 15.093 9.38044 15.0996L9.38049 15.098L12.6884 15.0996L14.3446 15.1006V23.9982H17.6053V15.1006H21.1346V12.2467ZM53.2585 10.5372C55.3022 10.5372 56.7149 11.0717 57.6125 11.9871C58.3962 12.7499 58.7965 13.78 58.7965 15.0962V15.1341C58.7965 17.1753 57.7083 18.5294 56.047 19.2354L58.7965 23.8891H54.4466L52.2642 20.08H50.6428V23.8891H46.9378V10.5372H53.2585ZM64.6437 10.5368V23.8887H60.9348V10.5368H64.6437ZM45.4673 10.5374V13.7802H41.4569V23.8893H37.7529V13.7802L33.7394 13.7782V10.5374H45.4673ZM85.4991 10.5368L91.1499 23.8887H87.2053L86.2389 21.5214H81.1182L80.1707 23.8887H76.302L81.4726 11.6716L80.6549 10.5368H85.4991ZM97.1341 10.5368C99.7598 10.5368 101.449 11.6377 102.588 13.2152L99.9066 15.2873C99.1728 14.3699 98.3272 13.7836 97.0972 13.7836C95.2981 13.7836 94.0312 15.3062 94.0312 17.1759V17.2128C94.0312 19.1393 95.2981 20.643 97.0972 20.643C98.438 20.643 99.2277 20.0187 99.9984 19.0834L102.679 20.991C101.468 22.6602 99.8327 23.8887 96.9874 23.8887C93.3143 23.8887 90.3581 21.0827 90.3581 17.2497V17.2128C90.3581 13.4714 93.2414 10.5368 97.1341 10.5368ZM120.611 10.5368V23.8887H116.902V10.5368H120.611ZM140.583 10.5409L146.081 17.5958V10.5409H149.747V23.8888H146.501L140.794 16.5667V23.8888H137.128V10.5409H140.583ZM72.5111 10.5367C75.8916 10.5367 78.069 12.2728 78.069 15.2293V15.2672C78.069 18.4142 75.643 20.0735 72.3204 20.0735L70.4874 20.0775V23.8886H66.7824V10.5367H72.5111ZM129.04 10.5365C133.007 10.5365 135.945 13.4901 135.945 17.1756V17.2125C135.945 20.8989 132.97 23.8884 129.004 23.8884C125.038 23.8884 122.099 20.9358 122.099 17.2494V17.2125C122.099 13.526 125.074 10.5365 129.04 10.5365ZM156.343 10.5363C158.54 10.5363 160.258 11.1266 161.661 12.2514L159.87 14.7782C158.688 13.9486 157.396 13.5058 156.251 13.5058C155.383 13.5058 154.958 13.8748 154.958 14.3355V14.3724C154.958 14.9627 155.401 15.2209 157.193 15.6268C160.166 16.2719 162.012 17.2312 162.012 19.6463V19.6842C162.012 22.3207 159.925 23.8882 156.786 23.8882C154.497 23.8882 152.318 23.1692 150.73 21.7493L152.724 19.3701C153.999 20.3842 155.42 20.9197 156.916 20.9197C157.875 20.9197 158.393 20.5876 158.393 20.0342V19.9973C158.393 19.4628 157.968 19.1677 156.214 18.7618C153.463 18.1346 151.34 17.3598 151.34 14.7044V14.6675C151.34 12.2704 153.241 10.5363 156.343 10.5363ZM115.384 10.5365V13.7783H111.376V23.8844H107.672V13.7783H103.663V10.5365H115.384ZM129.004 13.7464C127.057 13.7464 125.754 15.3239 125.754 17.1756V17.2125C125.754 19.0652 127.094 20.6796 129.04 20.6796C131.005 20.6796 132.309 19.1021 132.309 17.2494V17.2125C132.309 15.3598 130.968 13.7464 129.004 13.7464ZM83.697 14.8924L82.1994 18.6616H85.1766L83.697 14.8924ZM72.2256 13.7775H70.4874V17.3064H72.2445C73.5624 17.3064 74.3641 16.6194 74.3641 15.5703V15.5325C74.3641 14.3877 73.5624 13.7775 72.2256 13.7775ZM53.0679 13.782H50.6428V16.9868H53.0868C54.3468 16.9868 55.0726 16.3765 55.0726 15.4033V15.3654C55.0726 14.3164 54.3088 13.782 53.0679 13.782Z" fill="#1F304C"/>
</g>
<defs>
<clipPath id="clip0">
<rect width="162.714" height="34" fill="white"/>
</clipPath>
</defs>
</svg>
